symbols/web/dashboard_customize/materialsymbolsoutlined/dashboard_customize_wght700grad200_48px.svg

<svg xmlns="http://www.w3.org/2000/svg" height="48" width="48"><path d="M3.85 3.85h18.9v18.9H3.85Zm4.6 4.5V17Zm16.8-4.5h18.9v18.9h-18.9ZM31 8.35V17ZM3.85 25.25h18.9v18.9H3.85Zm4.6 5.6v8.7Zm23.95-5.6H37v7.15h7.15V37H37v7.15h-4.6V37h-7.15v-4.6h7.15ZM29.85 8.4v9.75h9.75V8.4Zm-21.4 0v9.75h9.75V8.4Zm0 21.4v9.75h9.75V29.8Z"/></svg>

<svg xmlns="http://www.w3.org/2000/svg" height="48" width="48"><path d="M3.85 3.85H22.75V22.75H3.85ZM8.45 8.35V17ZM25.25 3.85H44.15V22.75H25.25ZM31 8.35V17ZM3.85 25.25H22.75V44.15H3.85ZM8.45 30.85V39.55ZM32.4 25.25H37V32.4H44.15V37H37V44.15H32.4V37H25.25V32.4H32.4ZM29.85 8.4V18.15H39.6V8.4ZM8.45 8.4V18.15H18.2V8.4ZM8.45 29.8V39.55H18.2V29.8Z"/></svg>
